src/assets/logo-xs-mitre-blue.svg

<?xml version="1.0" encoding="UTF-8"?>
<svg width="320px" height="1024px" viewBox="0 0 320 1024" version="1.1" xmlns="http://www.w3.org/2000/svg" xmlns:xlink="http://www.w3.org/1999/xlink">
    <!-- Generator: Sketch 58 (84663) - https://sketch.com -->
    <title>Mobile - White Blue</title>
    <desc>Created with Sketch.</desc>
    <g id="Mobile---White-Blue" stroke="none" stroke-width="1" fill="none" fill-rule="evenodd">
        <circle id="Outline" stroke="#005B95" stroke-width="20" cx="160" cy="512" r="150"></circle>
        <path d="M122.59717,396.298002 C110.768541,399.130631 98.4494158,408.856207 85.6397933,425.474732 C72.8301707,442.093257 66.9970938,466.192601 68.1405625,497.772765 C72.8189771,511.666764 76.6249241,519.324546 79.5584037,520.74611 C81.7626922,521.814307 85.3173397,523.372547 88.3162548,524.848387 C90.3237072,525.836304 91.7590416,526.899678 92.9646559,528.137024 C93.553269,528.741129 93.553269,527.215779 97.5529037,534.793468 C98.5335043,536.651309 97.5529037,538.00302 97.4731457,542.446026 C97.3869501,547.247644 92.6329175,554.872645 83.2110479,565.321028 L83.2110479,568.330743 L92.1579532,578.294336 L95.298585,579.460645 C99.3883158,576.679499 102.320148,574.506245 104.094081,572.940883 C106.754981,570.59284 108.494293,570.354299 109.356664,570.59284 C109.899466,570.742986 113.315307,571.004388 113.784908,571.604072 C114.187307,572.117939 114.657755,572.536642 115.06524,572.940883 C115.614257,573.485529 116.048979,574.003921 116.048979,574.693439 C116.048979,575.587146 116.947539,577.061298 116.947539,582.402066 C116.947539,587.742834 116.947539,591.947145 117.985115,595.510728 C119.022692,599.07431 118.513899,597.689636 119.576935,600.282246 C120.546564,602.64705 121.844509,605.802902 123.484995,608.813027 C127.51632,616.210098 130.871361,622.326349 134.723286,628.086928 C134.917805,628.377832 136.057718,629.997539 136.057718,629.997539 C136.057718,629.997539 138.451983,629.997539 139.250913,629.997539 C139.60977,630 140.319459,630.022933 140.958288,629.859986 C141.489472,629.724496 142.072171,629.531831 142.213328,628.919763 C142.995807,625.526875 142.995807,619.177005 143.073783,608.813027 C143.124919,602.016241 142.821139,588.24191 142.162443,567.490033 C140.09607,566.044029 138.426324,564.789932 137.153206,563.72774 C135.243528,562.134452 133.961709,561.729291 133.032363,559.815801 C132.991124,559.730891 131.516557,557.66552 130.923211,556.508782 C130.280054,555.254936 129.71546,553.753477 129.715434,553.418339 C129.715365,552.542297 129.874783,551.795966 130.036816,551.549696 C130.380209,551.027784 131.103644,550.100643 132.23185,549.717496 C132.947351,549.474507 133.950569,549.591715 134.723286,549.717496 C135.988159,549.923389 138.066493,550.534122 140.958288,551.549696 C143.020136,552.310733 144.581404,553.112446 145.64209,553.954832 C146.819197,554.889679 149.393372,556.86801 149.905583,557.22614 C150.417794,557.58427 153.804578,561.358338 154.729476,562.016209 C156.364391,563.179107 157.908739,563.72774 158.889708,563.72774 C159.036764,563.72774 159.036764,553.806272 158.889708,533.963337 L154.729476,530.08521 L151.958577,527.215779 C148.337328,524.887176 145.845013,523.243232 144.481631,522.283945 C141.331769,520.067676 138.430355,518.507452 137.153206,517.890129 C135.876093,517.272824 132.282032,515.372704 127.458965,512.387439 C124.642402,510.644111 121.262159,508.329353 118.643796,506.340425 C114.653419,503.309304 111.885624,500.683594 111.277726,499.22727 C110.239646,496.740373 100.958533,487.230203 100.958533,473.170951 C100.958533,459.775805 109.190586,447.629994 117.985115,437.948882 C123.739702,431.614172 128.250648,427.322509 131.517955,425.073895 C132.63584,424.304547 124.398975,394.559863 128.683201,410.824495 C132.967427,427.089127 127.774033,405.79752 126.499349,402.42872 C125.547533,399.913211 125.598782,400.060802 124.451792,396.185854 C124.332592,395.78315 123.807206,396.155772 123.484995,396.185854 C123.281014,396.204897 122.985073,396.24228 122.59717,396.298002 Z" id="Left" stroke="#005B95" fill="#005B95"></path>
        <path d="M214.797108,396.298002 C202.708509,399.130631 190.118634,408.856207 177.027481,425.474732 C163.936328,442.093257 157.975052,466.192601 159.143652,497.772765 C163.924889,511.666764 167.814483,519.324546 170.812435,520.74611 C173.065169,521.814307 176.697941,523.372547 179.762766,524.848387 C181.814338,525.836304 183.281218,526.899678 184.51333,528.137024 C185.114879,528.741129 185.114879,527.215779 189.202418,534.793468 C190.20457,536.651309 189.202418,538.00302 189.120907,542.446026 C189.032817,547.247644 184.1743,554.872645 174.545357,565.321028 L174.545357,568.330743 L183.688897,578.294336 L186.898554,579.460645 C191.078169,576.679499 194.074437,574.506245 195.887357,572.940883 C198.606739,570.59284 200.384277,570.354299 201.265601,570.59284 C201.820333,570.742986 205.311248,571.004388 205.791169,571.604072 C206.202413,572.117939 206.6832,572.536642 207.099641,572.940883 C207.660725,573.485529 208.105001,574.003921 208.105001,574.693439 C208.105001,575.587146 209.023309,577.061298 209.023309,582.402066 C209.023309,587.742834 209.023309,591.947145 210.083689,595.510728 C211.14407,599.07431 210.624095,597.689636 211.710494,600.282246 C212.701434,602.64705 214.027905,605.802902 215.704445,608.813027 C219.824371,616.210098 223.253149,622.326349 227.189732,628.086928 C227.388526,628.377832 228.553492,629.997539 228.553492,629.997539 C228.553492,629.997539 231.000378,629.997539 231.816867,629.997539 C232.183611,630 232.908898,630.022933 233.561767,629.859986 C234.104625,629.724496 234.700131,629.531831 234.84439,628.919763 C235.644067,625.526875 235.644067,619.177005 235.723756,608.813027 C235.776016,602.016241 235.46556,588.24191 234.792386,567.490033 C232.680599,566.044029 230.974155,564.789932 229.673056,563.72774 C227.721408,562.134452 226.411417,561.729291 225.461646,559.815801 C225.4195,559.730891 223.912525,557.66552 223.306139,556.508782 C222.648846,555.254936 222.071844,553.753477 222.071817,553.418339 C222.071747,552.542297 222.234668,551.795966 222.400263,551.549696 C222.751203,551.027784 223.490537,550.100643 224.643539,549.717496 C225.374765,549.474507 226.400032,549.591715 227.189732,549.717496 C228.482404,549.923389 230.606416,550.534122 233.561767,551.549696 C235.668931,552.310733 237.264511,553.112446 238.34851,553.954832 C239.551487,554.889679 242.182237,556.86801 242.705706,557.22614 C243.229174,557.58427 246.690393,561.358338 247.635618,562.016209 C249.306465,563.179107 250.884756,563.72774 251.887284,563.72774 C252.037572,563.72774 252.037572,553.806272 251.887284,533.963337 L247.635618,530.08521 L244.80382,527.215779 C241.102984,524.887176 238.555892,523.243232 237.162546,522.283945 C233.943457,520.067676 230.978275,518.507452 229.673056,517.890129 C228.367875,517.272824 224.694824,515.372704 219.765756,512.387439 C216.88729,510.644111 213.432756,508.329353 210.756847,506.340425 C206.678768,503.309304 203.850143,500.683594 203.228884,499.22727 C202.16799,496.740373 192.682896,487.230203 192.682896,473.170951 C192.682896,459.775805 201.095873,447.629994 210.083689,437.948882 C215.96475,431.614172 220.574838,427.322509 223.913954,425.073895 C225.056408,424.304547 216.638512,394.559863 221.016897,410.824495 C225.395283,427.089127 220.087748,405.79752 218.785049,402.42872 C217.812314,399.913211 217.864689,400.060802 216.692491,396.185854 C216.570671,395.78315 216.033738,396.155772 215.704445,396.185854 C215.495982,396.204897 215.193536,396.24228 214.797108,396.298002 Z" id="Right" stroke="#005B95" fill="#005B95" transform="translate(205.500000, 513.000000) scale(-1, 1) translate(-205.500000, -513.000000) "></path>
    </g>
</svg>

<svg width="320" height="1024" xmlns="http://www.w3.org/2000/svg"><g fill="none" fill-rule="evenodd" stroke="#005B95"><circle stroke-width="20" cx="160" cy="512" r="150"/><path d="M122.597 396.298c-11.828 2.833-24.148 12.558-36.957 29.177-12.81 16.618-18.643 40.718-17.5 72.298 4.679 13.894 8.485 21.552 11.418 22.973 2.205 1.068 5.76 2.627 8.758 4.102 2.008.988 3.443 2.052 4.649 3.289.588.604.588-.921 4.588 6.656.98 1.858 0 3.21-.08 7.653-.086 4.802-4.84 12.427-14.262 22.875v3.01l8.947 9.963 3.14 1.167c4.09-2.782 7.022-4.955 8.796-6.52 2.661-2.348 4.4-2.587 5.263-2.348.542.15 3.958.411 4.428 1.011.402.514.873.933 1.28 1.337.55.545.984 1.063.984 1.752 0 .894.899 2.368.899 7.71 0 5.34 0 9.544 1.037 13.108 1.038 3.563.529 2.179 1.592 4.771.97 2.365 2.268 5.52 3.908 8.531 4.031 7.397 7.386 13.513 11.238 19.274.195.29 1.335 1.91 1.335 1.91h3.193c.359.003 1.068.026 1.707-.137.531-.136 1.114-.328 1.255-.94.783-3.393.783-9.743.86-20.107.052-6.797-.252-20.571-.91-41.323-2.067-1.446-3.737-2.7-5.01-3.762-1.91-1.594-3.191-1.999-4.12-3.912-.042-.085-1.516-2.15-2.11-3.307-.643-1.254-1.208-2.756-1.208-3.09 0-.877.16-1.623.322-1.87.343-.521 1.067-1.448 2.195-1.832.715-.242 1.719-.125 2.491 0 1.265.206 3.343.817 6.235 1.833 2.062.76 3.623 1.562 4.684 2.405 1.177.935 3.751 2.913 4.264 3.271.512.358 3.899 4.132 4.823 4.79 1.635 1.163 3.18 1.712 4.16 1.712.148 0 .148-9.922 0-29.765l-4.16-3.878-2.77-2.87c-3.622-2.328-6.114-3.972-7.477-4.931-3.15-2.216-6.052-3.777-7.329-4.394-1.277-.617-4.871-2.517-9.694-5.503a121.12 121.12 0 01-8.815-6.047c-3.99-3.03-6.758-5.656-7.366-7.113-1.038-2.487-10.32-11.997-10.32-26.056 0-13.395 8.233-25.541 17.027-35.222 5.755-6.335 10.266-10.626 13.533-12.875 1.118-.77-7.119-30.514-2.835-14.25 4.284 16.265-.909-5.026-2.184-8.395-.951-2.516-.9-2.368-2.047-6.243-.12-.403-.645-.03-.967 0-.204.019-.5.056-.888.112z" fill="#005B95"/><path d="M196.203 396.298c12.088 2.833 24.678 12.558 37.77 29.177 13.09 16.618 19.052 40.718 17.883 72.298-4.78 13.894-8.67 21.552-11.668 22.973-2.253 1.068-5.886 2.627-8.95 4.102-2.052.988-3.52 2.052-4.751 3.289-.602.604-.602-.921-4.69 6.656-1.002 1.858 0 3.21.082 7.653.088 4.802 4.947 12.427 14.576 22.875v3.01l-9.144 9.963-3.21 1.167c-4.18-2.782-7.175-4.955-8.988-6.52-2.72-2.348-4.497-2.587-5.379-2.348-.554.15-4.045.411-4.525 1.011-.411.514-.892.933-1.309 1.337-.56.545-1.005 1.063-1.005 1.752 0 .894-.918 2.368-.918 7.71 0 5.34 0 9.544-1.06 13.108-1.061 3.563-.541 2.179-1.627 4.771-.991 2.365-2.318 5.52-3.994 8.531-4.12 7.397-7.55 13.513-11.486 19.274-.199.29-1.363 1.91-1.363 1.91h-3.264c-.367.003-1.092.026-1.745-.137-.543-.136-1.138-.328-1.282-.94-.8-3.393-.8-9.743-.88-20.107-.052-6.797.258-20.571.932-41.323 2.111-1.446 3.818-2.7 5.119-3.762 1.952-1.594 3.262-1.999 4.211-3.912.042-.085 1.55-2.15 2.156-3.307.657-1.254 1.234-2.756 1.234-3.09 0-.877-.163-1.623-.328-1.87-.351-.521-1.09-1.448-2.244-1.832-.73-.242-1.756-.125-2.546 0-1.292.206-3.416.817-6.372 1.833-2.107.76-3.703 1.562-4.787 2.405-1.202.935-3.833 2.913-4.357 3.271-.523.358-3.984 4.132-4.93 4.79-1.67 1.163-3.249 1.712-4.251 1.712-.15 0-.15-9.922 0-29.765l4.251-3.878 2.832-2.87c3.701-2.328 6.248-3.972 7.641-4.931 3.22-2.216 6.185-3.777 7.49-4.394 1.305-.617 4.978-2.517 9.907-5.503a123.926 123.926 0 009.01-6.047c4.077-3.03 6.906-5.656 7.527-7.113 1.061-2.487 10.546-11.997 10.546-26.056 0-13.395-8.413-25.541-17.4-35.222-5.882-6.335-10.492-10.626-13.831-12.875-1.142-.77 7.275-30.514 2.897-14.25-4.378 16.265.93-5.026 2.232-8.395.973-2.516.92-2.368 2.093-6.243.121-.403.658-.03.988 0 .208.019.51.056.907.112z" fill="#005B95"/></g></svg>
